X:1
T:Laetentur coeli - Byrd
T:James Gibb editions
T:#
%%score 1 2 3 { 4 | 5 }
L:1/8
Q:1/4=90
M:2/2
K:Eb
V:1 treble nm="Soprano" snm="S"
V:2 treble nm="Alto" snm="A"
V:3 treble-8 nm="Tenor" snm="T"
V:4 bass nm="Bass II"
V:5 bass 
V:1
"^Laetentur coeli""^William Byrd\n(1542-1623)"{[Cf]} E4 (A3 G | AFGA B2) F2 | (G2 EF GABG | %3
w: Lae- ten\- *|* * * * * tur|coe\- * * * * * *|
 =A B2 A) B2 (F2 | GEFG ABcB | cd e4 d2) |[M:2/2] e4 z4 | z4 z2 B2- | BedB z cBG | (=A B2 A) B4 | %10
w: * * * li, coe\-|||li,|et|* ex- sul- tet, ex- sul- tet|ter\- * * ra,|
 z2 G3 BAF | c2 Gc BG z e | dB z d BG (B2- | BA F2) G4 | E3 F G2 A2 | B2 c2 (B2 EA) | (G2 C2) E4 | %17
w: et ex- sul- tet|ter- ra, ex- sul- tet, ex-|sul- tet, ex- sul- tet ter\-|* * * ra.|Ju- bi- la- te|mon- tes lau\- * *|* * dem,|
 z4 B3 c | d2 e2 f4 | f2 (Be dc B>G | =A/B/c- c/B/G A B2 A | B4) G4 | z4 z2 B2- | B2 E2 B3 B | %24
w: ju- bi-|la- te mon-|tes lau\- * * * * *||* dem,|qui\-|* a Do- mi-|
 B2 e3 d (c2- | c2 B2 A3)"^James Gibb editions" A | G4 B4 | G2 B3 c d2 | e2 B2 c3 c | B4 z2 B2 | %30
w: nus nos- ter ve\-|* * * ni-|et, qui-|a Do- mi- nus|nos- ter ve- ni-|et, et|
 G3 F E2 B2 | (cB B4 =A2) | B4 z2 e2 | c3 B A2 F2 | B4 G2 A2- | AG (F3 E E2- | E2) (D2 EFGA) | %37
w: pau- pe- rum su-|o\- * * *|rum, et|pau- pe- rum su-|o- rum mi\-|* se- re\- * *|* bi\- * * * *|
 B2 E3 F (G2- | G2 FE D2) E2 | F4 z4 | z4 z2 B2 | G3 F E2 B2 | e8 | c4 d4 | c2 (e4 dc | B6 B2 | %46
w: tur, mi- se- re\-|* * * * bi-|tur,|et|pau- pe- rum su-|o-|rum mi-|se- re\- * *|* bi-|
 x2 x2 x2 x2 | !fermata!B8 ||"^Second part" z8 | z4 E3 F | GA) B2 c2 d2 | e2 c2 (B4 | A4) G4 | %53
w: |tur.||O- ri-|e\- * tur in di-|e- bus tu\-|* is|
 z2 d2 e2 c2 |[M:2/2] B4 B2 (d2- | dc c4) =B2 | c4 z4 | z2 G2 c2 B2 | e3 e d2 (c2- | %59
w: ju- sti- ti-|a, ju- sti\-|* * * ti-|a,|et a- bun-|dan- ti- a pa\-|
 c2 =B2) c2 (G2 |[M:2/2] B2 A2) G4 | z2 G2 c2 B2 | f3 f e2 (d2- | dc c3 B B2 | =A2 G2) B2 z B | %65
w: * * cis, pa\-|* * cis,|et a- bun-|dan- ti- a pa\-||* * cis, et|
 d2 c2 e3 d | B2 (c2 d3 c- | B2 c4 BA) | G4 z2 B2 | G3 F E2 B2 | (cB B4 =A2) | B4 z2 e2 | %72
w: a- bun- dan- ti-|a pa\- * *||cis, et|pau- pe- rum su-|o\- * * *|rum, et|
 c3 B A2 F2 | B4 G2 A2- | AG (F3 E E2- | E2 (D2 EFGA) | B2 E3 F (G2- | G2 FE) D2) E2 | F4 z4 | %79
w: pau- pe- rum su-|o- rum mi\-|* se- re\- * *|* bi\- * * * *|tur, mi- se- re\-|* * * * bi-|tur,|
 z4 z2 B2 | G3 F E2 B2 | e8 | c4[Q:1/4=88] d4 |[Q:1/4=86] c2[Q:1/4=84] (e4[Q:1/4=82] d[Q:1/4=82]c | %84
w: et|pau- pe- rum su-|o-|rum mi-|se- re\- * *|
[Q:1/4=80] B6[Q:1/4=77] B2) | x2 x2 x2 x2 |[Q:1/4=77] !fermata!B8 |] %87
w: ||tur.|
V:2
 z8 | z4 B,4 | (E3 D ECDE | F2) C2 (D3 C/D/) | E4 E2 C2 | F2 E2 (BG B2- |[M:2/2] BAGF E2 D2 | %7
w: |Lae-|ten\- * * * * *|* tur coe\- * *|li, et ex-|sul- tet ter- * *||
 C2 D2) E4 | G2 B2 =A2 FG | FD F2 D4 | z C2 E DB, F2 | C4 z E2 G | FD (F3 E- E2 | E2 D2) E4 | z8 | %15
w: * * ra,|et ex- sul- tet, ex-|sul- tet ter- ra,|et ex- sul- tet ter-|ra, et ex-|sul- tet ter\- * *|* * ra.||
 E3 F G2 A2 | B2 c2 (B2 EA | GEGF) E2 (G2 | F2 B,2) B,4- | B,8 | z4 z2 F2- | F2 D2 E3 F | %22
w: Ju- bi- la- te|mon- tes lau\- * *|* * * * dem, lau\-|* * dem,||qui\-|* a Do- mi-|
 G2 B4 F2 | B,3 B, B,4 | z8 | z2 E4 D2 | E3 F G2 B2- | B2 G2 E2 F2 | G2 (G4 F2- | FE E4) D2 | %30
w: nus nos- ter|ve- ni- et,||qui- a|Do- mi- nus nos\-|* ter ve- ni-|et, ve\- *|* * * ni-|
 E4 z2 E2- | E2 G4 (FE) | D2 B,2 (C3 D) | E2 E4 D2 | (E2 B,2 C3) C | F4 z4 | z2 B2 G3 F | %37
w: et, et|* pau- pe\- *|rum su- o\- *|rum mi- se-|re\- * * bi-|tur,|et pau- pe-|
 E2 B2 (cB B2- | B2 =A2) B4 | z2 F2 D3 C | B,2 E2 F4 | E2 B2 G3 F | E2 G2 (A2 G2) | F4 z2 B2 | %44
w: rum su- o\- * *|* * rum|et pau- pe-|rum su- o-|rum, et pau- pe-|rum su- o\- *|rum mi-|
 A2 (G3 F/E/ F2- | FE E4) D2 | !fermata!E8 | x8 || B,3 C (DE) F2 | G2 =A2 B2 G2 | (E2 G2) F3 F | %51
w: se- re\- * * *|* * * bi-|tur.||O- ri- e\- * tur|in di- e- bus|tu\- * is ju-|
 G2 E2 D2 G2- | G2 F2 C2 E2 | (D2 G,2) C2 z F |[M:2/2] G2 E2 D2 B,2 | C2 A,2 G,4 | z2 C2 E2 D2 | %57
w: sti- ti- a, in|* di- e- bus|tu\- * is ju-|sti- ti- a, ju-|sti- ti- a,|et a- bun-|
 B3 B A2 (G2- | G2 C2 F3 E | C2 D2) C4 |[M:2/2] z2 C2 E2 D2 | B3 B A2 (G2 | F>G AF GA B2- | %63
w: dan- ti- a pa\-||* * cis,|et a- bun-|dan- ti- a pa\-||
 BAFA G2) F2 | z2 E2 G2 F2 | B3 A G3 (F/E/ | DC A2 G2 F2- | FE E4 D2) | E4 B,2 E2- | %69
w: * * * * * cis,|et a- bun-|dan- ti- a pa\- *|||cis, et pau\-|
 E2 E2 B,2 E2- | E2 (G4 FE) | D2 B,2 (C3 D) | E2 E4 D2 | (E2 B,2 C3) C | F4 z4 | z2 B2 G3 F | %76
w: * pe- rum su\-|* o\- * *|rum su- o\- *|rum mi- se-|re\- * * bi-|tur,|et pau- pe-|
 E2 B2 c(B B2- | B2 =A2 B4) | z2 F2 D3 C | B,2 E2 F4 | E2 B2 G3 F | E2 G2 (A2 G2) | F4 z2 B2 | %83
w: rum su- o\- * *|* * rum|et pau- pe-|rum su- o-|rum, et pau- pe-|rum su- o\- *|rum mi-|
 A2 (G3 F/E/ F2- | FE E4) D2 | !fermata!E8 | x8 |] %87
w: se- re\- * * *|* * * bi-|tur.||
V:3
 z8 | z8 | z8 | F4 (B3 A | BGAB c2) F2- | F2 (Bcde) f2 |[M:2/2][K:treble-8] (e2 EFGA B2 | %7
w: |||Lae- ten\- *|* * * * * tur|* coe\- * * * li,|coe\- * * * * *|
 A2 B2) B4 | B2 B2 fc z e | dB c2 B F2 B | AF (cG) B2 z B | AF c2 G2 z B | B2 B2 B4 | B4 B3 B | %14
w: * * li,|et ex- sul- tet, ex-|sul- tet ter- ra, et ex-|sul- tet ter\- * ra, ex-|sul- tet ter- ra, ex-|sul- tet ter-|ra. Ju- bi-|
 c2 B2 e2 c2 | (B_dcA) e4 | (E2 A2 E2 e2) | e4 z4 | B3 c d3 e | f2 g2 (f2 Be | dc e2 fd c2) | %21
w: la- te mon- tes|lau\- * * * dem,|lau\- * * *|dem,|ju- bi- la- te|mon- tes lau\- * *||
 B4 z2 e2- | e2 B2 d3 e | f2 g4 f2 | g3 f e2 (f2 | e3 B c2) A2 | B2 e4 d2 | e2 e2 B3 (A | %28
w: dem, qui\-|* a Do- mi-|nus nos- ter|ve- ni- et, ve\-|* * * ni-|et, qui- a|Do- mi- nus nos\-|
 GE e4) c2 | F2 B2 B4- | B4 z2 B2 | G3 F E2 F2 | G6 E2 | E3 e c2 (BA) | G4 z2 e2 | c3 B A2 e2 | %36
w: * * * ter|ve- ni- et,|* et|pau- pe- rum su-|o- rum|mi- se- re- bi\- *|tur, et|pau- pe- rum su-|
 f4 e4 | z2 B2 G3 F | E2 F2 G4 | F8 | z2 B2 d3 c | B4 B4 | (c3 d) e4 | z2 f3 d (f2- | f2 ed c2 d2 | %45
w: o- rum,|et pau- pe-|rum su- o-|rum,|et pau- pe-|rum su-|o\- * rum|mi- se- re\-||
 g4 f4 | !fermata!B8 | x8 || z8 | z8 | z8 | E3 F GA) B2 | c2 d2 e2 c2 | (B4 A4) | %54
w: * bi-|tur.|||||O- ri- e\- * tur|in di- e- bus|tu\- *|
[M:2/2][K:treble-8] G4 z2 z d | e2 c2 d2 z G | A2 F2 G4- | G4 z4 | z4 z2 F2 | A2 G2 e3 e | %60
w: is ju-|sti- ti- a, ju-|sti- ti- a,||et|a- bun- dan- ti-|
[M:2/2][K:treble-8] d2 (c4 BA) | G4 z4 | z2 F2 c2 B2 | f3 f e2 (d2 | c4 B4 | z4 z2 E2 | %66
w: a pa\- * *|cis,|et a- bun-|dan- ti- a pa\-|* cis,|et|
 G2 F2 B3 A | G2 (A2 F4) | E8 | z4 z2 B2 | G3 F E2 F2 | G6 E2 | E3 e c2 BA) | G4 z2 e2 | %74
w: a- bun- dan- ti-|a pa\- *|cis,|et|pau- pe- rum su-|o- rum|mi- se- re- bi\- *|tur, et|
 c3 B A2 e2 | f4 e4 | z2 B2 G3 F | E2 F2 G4 | F8 | z2 B2 d3 c | B4 B4 | c3 d e4 | z2 f3 d (f2- | %83
w: pau- pe- rum su-|o- rum,|et pau- pe-|rum su- o-|rum,|et pau- pe-|rum su-|o- * rum|mi- se- re\-|
 f2 ed c2 d2 | g4) f4 | !fermata!B8 | x8 |] %87
w: |* bi-|tur.||
V:4
 z8 | z8 | z8 | z8 | E,4 (A,3 G, | A,F,G,A, B,2) F,2 |[M:2/2] (G,A, B,3 E,F,G, | %7
w: ||||Lae- ten\- *|* * * * * tur|coe\- * * * * *|
 A,>G, F,A,) G,2 E,2- | E,2 G,2 F,2 (D,E,) | (F,G, F,2) B,,4 | (F,2 C,2) B,,2 z F,- | %11
w: * * * * li, et|* ex- sul- tet *|ter\- * * ra,|ter\- * ra, et|
 F,A,G,E, z CB,G, | z G,F,D, (G,4 | F,4) E,4- | E,4 z4 | z4 E,3 F, | G,2 A,2 B,2 C2 | %17
w: * ex- sul- tet, ex- sul- tet,|ex- sul- tet ter\-|* ra.||Ju- bi-|la- te mon- tes|
 (B,2 E,A,G,E, B,2- | B,=A, G,2) F,4 | B,,3 C, D,2 E,B,- | B,(=A, G,2) F,4 | F,4 z2 C2- | %22
w: lau\- * * * * *|* * * dem,|ju- bi- la- te mon\-|* tes * lau-|dem, qui\-|
 C2 G,2 B,3 C | D2 E4 D2 | E2 C2 B,2 (F,2 | A,2) E,2 A,4 | z2 E,4 B,,2 | E,3 F, G,2 B,2- | %28
w: * a Do- mi-|nus nos- ter|ve- ni- et, ve\-|* ni- et,|qui- a|Do- mi- nus nos\-|
 B,2 G,2 (E,2 F,2) | (D,2 E,2) B,,4 | z2 B,2 G,3 F, | E,2 B,2 C4 | B,2 G,2 E,2 A,2- | A,2 G,2 A,4 | %34
w: * ter ve\- *|ni\- * et,|et pau- pe-|rum su- o-|rum mi- se- re\-|* bi- tur,|
 z2 G,2 C,2 E,2- | E,2 D,2 E,2 G,G, | B,3 B, E,4- | E,4 z4 | z4 z2 E,2 | D,3 C, B,,2 F,2 | %40
w: mi- se- re\-|* bi- tur, mi- se-|re- bi- tur,||et|pau- pe- rum su-|
 G,4 F,2 B,,2 | E,3 (D,E,F, G,2- | G,C, C4 B,2- | B,2) =A,2 B,4 | z2 E,2 E,2 (B,2- | %45
w: o- rum mi-|se- re\- * * *||* bi- tur,|mi- se- re\-|
 B,G,) (B,3 A, F,2) | !fermata!G,8 | x8 ||[M:2/2] z8 | z8 | z8 | z8 | z8 | z8 |[M:2/2] z8 | z8 | %56
w: * * bi\- * *|tur.||||||||||
 z8 | z8 | z8 | z8 |[M:2/2] z8 | z8 | z8 | z8 |[M:2/2] z8 | z8 | z8 | z8 | z8 | z2 B,2 G,3 F, | %70
w: |||||||||||||et pau- pe-|
 E,2 B,2 C4 | B,2 G,2 E,2 A,2- | A,2 G,2 A,4 | z2 G,2 C,2 E,2- | E,2 D,2 E,2 G,G, | B,3 B, E,4- | %76
w: rum su- o-|rum mi- se- re\-|* bi- tur,|mi- se- re\-|* bi- tur, mi- se-|re- bi- tur,|
 E,4 z4 | z4 z2 E,2 | D,3 C, B,,2 F,2 | G,4 F,2 B,,2 | E,3 (D,E,F, G,2- | G,C, C4 B,2- | %82
w: |et|pau- pe- rum su-|o- rum mi-|se- re\- * * *||
 B,2) =A,2 B,4 | z2 E,2 E,2 (B,2- | B,G,) (B,3 A, F,2) | !fermata!G,8 | x8 |] %87
w: * bi- tur,|mi- se- re\-|* * bi\- * *|tur.||
V:5
 z8 | z8 | z8 | z8 | z8 | z4 B,,4 |[M:2/2] (E,3 D, E,C,D,E, | F,2) B,,2 (E,F,G,A,) | B,4 z4 | %9
w: |||||Lae-|ten\- * * * * *|* tur coe\- * * *|li,|
 z4 z2 F,2- | F,A,G,E, z G,F,D, | z F,E,C, E,4 | B,,4 (G,,3 A,,) | B,,4 z4 | z4 E,3 F, | %15
w: et|* ex- sul- tet, ex- `sul- tet,|ex- sul- tet ter-|ra, ter\- *|ra.|Ju\- bi\-|
 G,2 A,2 B,2 C2 | (B,2 F,A,G,E, A,2) | E,8 | z4 B,,3 C, | D,2 E,2 F,2 G,2 | (F,2 C,E,D,B,, F,2) | %21
w: la- te mon\- tes|lau\- * * * * *|dem,|ju- bi-|la- te mon- tes|lau\- * * * * *|
 B,,4 z4 | z8 | z2 E,4 B,,2 | E,3 F, G,2 A,2- | A,2 G,2 F,3 F, | E,4 z4 | z2 E,4 B,,2 | %28
w: dem,||qui- a|Do- mi- nus nos\-|* ter ve- ni-|et,|qui- a|
 E,3 F, G,2 A,2- | A,2 G,2 F,3 F, | E,8 | z8 | z2 E,2 C,3 B,, | A,,2 E,2 F,4 | E,6 A,,2- | %35
w: Do- mi- nus nos\-|* ter ve- ni-|et,||et pau- pe-|rum su- o-|rum mi\-|
 A,,2 B,,2 C,3 C, | B,,4 z2 B,2 | G,3 F, E,2 B,2 | C4 B,4 | B,,6 B,,2 | E,3 E, B,,4 | z4 z2 E,2 | %42
w: * se- re- bi-|tur, et|pau- pe- rum su-|o- rum|mi- se-|re- bi- tur,|et|
 C,3 B,, A,,2 E,2 | F,4 B,,4 | C,6 B,,2 | (G,,3 A,, B,,2) B,,2 | !fermata!E,8 | x8 ||[M:2/2] x8 | %49
w: pau- pe- rum su-|o- rum|mi- se-|re\- * * bi-|tur.|||
 x8 | x8 | x8 | x8 | x8 |[M:2/2] x8 | x8 | x8 | x8 | x8 | x8 |[M:2/2] x8 | x8 | x8 | x8 | %64
w: |||||||||||||||
[M:2/2] z8 | z8 | z8 | z8 | z2 B,2 G,3 F, | E,8 | z8 | z2 E,2 C,3 B,, | A,,2 E,2 F,4 | E,6 A,,2- | %74
w: ||||et pau- pe-|rum,||et pau- pe-|rum su- o-|rum mi\-|
 A,,2 B,,2 C,3 C, | B,,4 z2 B,2 | G,3 F, E,2 B,2 | C4 B,4 | B,,6 B,,2 | E,3 E, B,,4 | z4 z2 E,2 | %81
w: * se- re- bi-|tur, et|pau- pe- rum su-|o- rum|mi- se-|re- bi- tur,|et|
 C,3 B,, A,,2 E,2 | F,4 B,,4 | C,6 B,,2 | (G,,3 A,, B,,2) B,,2 | !fermata!E,8 | x8 |] %87
w: pau- pe- rum su-|o- rum|mi- se-|re\- * * bi-|tur.||

